svgs/thin/bus-school.svg

<svg xmlns="http://www.w3.org/2000/svg" viewBox="0 0 512 512"><!--! Font Awesome Pro 6.1.1 by @fontawesome - https://fontawesome.com License - https://fontawesome.com/license (Commercial License) Copyright 2022 Fonticons, Inc. --><path d="M320 48C324.4 48 328 51.58 328 56C328 60.42 324.4 64 320 64H192C187.6 64 184 60.42 184 56C184 51.58 187.6 48 192 48H320zM168 344C168 366.1 150.1 384 128 384C105.9 384 88 366.1 88 344C88 321.9 105.9 304 128 304C150.1 304 168 321.9 168 344zM128 368C141.3 368 152 357.3 152 344C152 330.7 141.3 320 128 320C114.7 320 104 330.7 104 344C104 357.3 114.7 368 128 368zM424 344C424 366.1 406.1 384 384 384C361.9 384 344 366.1 344 344C344 321.9 361.9 304 384 304C406.1 304 424 321.9 424 344zM384 368C397.3 368 408 357.3 408 344C408 330.7 397.3 320 384 320C370.7 320 360 330.7 360 344C360 357.3 370.7 368 384 368zM448 78.98V260.1C467.5 276.3 480 300.7 480 328V400C480 426.5 458.5 448 432 448V504C432 508.4 428.4 512 424 512C419.6 512 416 508.4 416 504V448H96V504C96 508.4 92.42 512 88 512C83.58 512 80 508.4 80 504V448C53.49 448 32 426.5 32 400V328C32 300.7 44.46 276.3 64 260.1V78.98C64 72.4 65.52 64.83 70.66 58.7C91.12 34.32 148.8 0 256 0C370.9 0 422.4 34.2 441.7 58.81C446.5 64.97 448 72.37 448 78.98V78.98zM80 78.98V96H432V78.98C432 74.65 430.1 71.13 429.1 68.66C413.9 49.3 367.1 16 256 16C151.7 16 99.35 49.4 82.92 68.98C81.03 71.24 80 74.62 80 78.98zM80 112V249.6C92 243.5 105.6 240 120 240H248V112H80zM432 112H264V240H392C406.4 240 420 243.5 432 249.6V112zM120 256C80.24 256 48 288.2 48 328V400C48 417.7 62.33 432 80 432H432C449.7 432 464 417.7 464 400V328C464 288.2 431.8 256 392 256H120zM0 120C0 106.7 10.75 96 24 96H32C36.42 96 40 99.58 40 104C40 108.4 36.42 112 32 112H24C19.58 112 16 115.6 16 120V232C16 236.4 19.58 240 24 240H32C36.42 240 40 243.6 40 248C40 252.4 36.42 256 32 256H24C10.75 256 0 245.3 0 232V120zM488 96C501.3 96 512 106.7 512 120V232C512 245.3 501.3 256 488 256H480C475.6 256 472 252.4 472 248C472 243.6 475.6 240 480 240H488C492.4 240 496 236.4 496 232V120C496 115.6 492.4 112 488 112H480C475.6 112 472 108.4 472 104C472 99.58 475.6 96 480 96H488z"/></svg>

<svg xmlns="http://www.w3.org/2000/svg" viewBox="0 0 512 512"><!--! Font Awesome Pro 6.5.1 by @fontawesome - https://fontawesome.com License - https://fontawesome.com/license (Commercial License) Copyright 2023 Fonticons, Inc. --><path d="M82.9 69C81 71.2 80 74.6 80 79V96H432V79c0-4.3-1-7.9-2.9-10.3C413.9 49.3 368 16 256 16C151.7 16 99.3 49.4 82.9 69zM80 112V249.6c12-6.1 25.6-9.6 40-9.6H248V112H80zM432 249.6V112H264V240H392c14.4 0 28 3.5 40 9.6zM448 79V260.1c19.5 16.1 32 40.6 32 67.9v72c0 20.9-13.4 38.7-32 45.3V448v32c0 17.7-14.3 32-32 32H384c-17.7 0-32-14.3-32-32V448H160v32c0 17.7-14.3 32-32 32H96c-17.7 0-32-14.3-32-32V448v-2.7c-18.6-6.6-32-24.4-32-45.3V328c0-27.3 12.5-51.7 32-67.9V79c0-6.6 1.5-14.2 6.7-20.3C91.1 34.3 148.8 0 256 0C370.9 0 422.4 34.2 441.7 58.8C446.5 65 448 72.4 448 79zM352 432h16 64c17.7 0 32-14.3 32-32V328c0-39.8-32.2-72-72-72H120c-39.8 0-72 32.2-72 72v72c0 17.7 14.3 32 32 32h64 16H352zm16 16v32c0 8.8 7.2 16 16 16h32c8.8 0 16-7.2 16-16V448H368zM80 448v32c0 8.8 7.2 16 16 16h32c8.8 0 16-7.2 16-16V448H80zm8-104a40 40 0 1 1 80 0 40 40 0 1 1 -80 0zm40 24a24 24 0 1 0 0-48 24 24 0 1 0 0 48zm216-24a40 40 0 1 1 80 0 40 40 0 1 1 -80 0zm40 24a24 24 0 1 0 0-48 24 24 0 1 0 0 48zM192 48H320c4.4 0 8 3.6 8 8s-3.6 8-8 8H192c-4.4 0-8-3.6-8-8s3.6-8 8-8zM0 120c0-13.3 10.7-24 24-24h8c4.4 0 8 3.6 8 8s-3.6 8-8 8H24c-4.4 0-8 3.6-8 8V232c0 4.4 3.6 8 8 8h8c4.4 0 8 3.6 8 8s-3.6 8-8 8H24c-13.3 0-24-10.7-24-24V120zM488 96c13.3 0 24 10.7 24 24V232c0 13.3-10.7 24-24 24h-8c-4.4 0-8-3.6-8-8s3.6-8 8-8h8c4.4 0 8-3.6 8-8V120c0-4.4-3.6-8-8-8h-8c-4.4 0-8-3.6-8-8s3.6-8 8-8h8z"/></svg>
